X: 4578
T: Bottom Of The Punchbowl, The
R: reel
M: 4/4
K: Dmajor
|:FE|D2d2 d3e|d2DE FGAF|E2e2 efgf|edcB AGFE|
D2d2 d3e|fedc d2A2|B2dB ABAG|F2D2 D2:|
|:de|fedB ABde|faef d3A|B2e2 e2de|f2e2 e2de|
fedB ABde|faef d3A|B2dB ABAG|F2D2 D2:|

